icon-themes/sifr_svg/cmd/sc_basicshapes.can.svg

<svg viewBox="0 0 16 16" xmlns="http://www.w3.org/2000/svg"><g fill="#555753"><path d="m4 7v7h8v-7z" opacity=".35"/><path d="m8 0a6 4 0 0 0 -6 4v8c0 2.209139 2.6862915 4 6 4 3.313708 0 6-1.790861 6-4v-8a6 4 0 0 0 -6-4zm0 2a4 2 0 0 1 4 2 4 2 0 0 1 -4 2 4 2 0 0 1 -4-2 4 2 0 0 1 4-2zm-4 5a6 4 0 0 0 4 1 6 4 0 0 0 4-1v5c0 .3-.172063.7-.867188 1.164062-.695119.465938-1.832812.835938-3.132812.835938s-2.4376925-.37-3.1328125-.835938c-.69512-.463408-.8671875-.864062-.8671875-1.164062v-5.0253906z"/></g></svg>

<svg xmlns="http://www.w3.org/2000/svg" viewBox="0 0 16 16">
  <path
     style="fill:#555753;opacity:0.35"
     d="M 4 7 L 4 14 L 12 14 L 12 7 L 4 7 z "
     />
  <path
     style="fill:#555753"
     d="M 8 0 A 6 4 0 0 0 2 4 L 2 12 C 2 14.209139 4.6862915 16 8 16 C 11.313708 16 14 14.209139 14 12 L 14 4 A 6 4 0 0 0 8 0 z M 8 2 A 4 2 0 0 1 12 4 A 4 2 0 0 1 8 6 A 4 2 0 0 1 4 4 A 4 2 0 0 1 8 2 z M 4 7 A 6 4 0 0 0 8 8 A 6 4 0 0 0 12 7 L 12 12 C 12 12.3 11.827937 12.7 11.132812 13.164062 C 10.437693 13.63 9.3 14 8 14 C 6.7 14 5.5623075 13.63 4.8671875 13.164062 C 4.1720675 12.700654 4 12.3 4 12 L 4 6.9746094 z "
     />
</svg>
